public/assets/images/datafund-logo.svg

<?xml version="1.0" encoding="UTF-8"?>
<svg width="134px" height="25px" viewBox="0 0 134 25" version="1.1" xmlns="http://www.w3.org/2000/svg" xmlns:xlink="http://www.w3.org/1999/xlink">
    <!-- Generator: sketchtool 49.1 (51147) - http://www.bohemiancoding.com/sketch -->
    <title>4C4E213C-CE92-457A-B38D-4360DD070923</title>
    <desc>Created with sketchtool.</desc>
    <defs></defs>
    <g id="Datafund" stroke="none" stroke-width="1" fill="none" fill-rule="evenodd">
        <g id="datafund" transform="translate(-50.000000, -50.000000)" fill="#000000">
            <g id="hero">
                <g id="logotype" transform="translate(50.000000, 50.000000)">
                    <path d="M42.33715,17.78415 L38.33065,17.78415 L38.33065,7.76415 L42.98065,7.76415 C43.67515,7.76415 44.40315,7.78715 45.02265,7.95115 C47.01965,8.48065 48.27265,10.27115 48.29315,12.62265 C48.29315,13.55365 48.08765,15.29615 46.71215,16.51765 C45.39015,17.68615 43.82615,17.78415 42.33715,17.78415 M47.60415,7.12465 C45.91915,6.03265 44.35765,6.03265 42.98065,6.03265 L36.25815,6.03265 L36.25815,19.55365 L41.67515,19.55365 C43.69015,19.55365 46.19765,19.55365 48.10365,17.94515 C49.53215,16.74965 50.38515,14.78865 50.38515,12.69865 C50.38515,10.28115 49.39715,8.30215 47.60415,7.12465" id="Fill-1"></path>
                    <path d="M57.94775,15.18255 L61.24975,15.18255 C61.24925,15.19355 61.24875,15.20605 61.24825,15.21755 C61.23375,15.52355 61.21075,16.03355 60.92375,16.57705 C60.05525,18.17855 57.90475,18.35155 57.02075,18.35155 C55.23325,18.35155 54.43325,17.48005 54.43325,16.61555 C54.43325,15.18255 56.14025,15.18255 57.94775,15.18255 M64.04075,18.20005 C63.26925,18.20005 63.08125,17.93755 63.08125,16.86155 L63.08125,13.17155 C63.08125,12.47705 63.08125,11.82005 62.61075,11.19305 C62.24275,10.69805 61.64025,10.35155 60.80575,10.16055 C59.69325,9.88205 58.30975,9.87405 58.15625,9.87405 C54.92425,9.87405 53.97525,10.66155 53.50925,11.34805 C53.27975,11.69255 53.10525,12.18655 53.08175,12.28155 C53.08175,12.28155 53.06825,12.33605 53.05625,12.38105 C53.04625,12.42055 53.02675,12.51605 53.02375,12.55755 L55.02875,12.55755 C55.03625,12.53855 55.04375,12.52055 55.05175,12.50205 C55.44675,11.54255 57.00925,11.34105 58.25075,11.34105 C61.23575,11.34105 61.23575,12.38655 61.23575,13.49305 L61.23575,13.63955 L58.68575,13.63955 C56.54325,13.63955 55.06975,13.67055 54.15025,14.08155 C53.75725,14.24755 52.47375,14.92355 52.47375,16.63405 C52.47375,17.39955 52.79225,19.89405 56.88775,19.89405 C59.45525,19.89405 60.79725,18.93405 61.28325,18.23855 C61.37175,18.84905 61.63525,19.64855 63.11375,19.64855 C63.51425,19.64855 63.91975,19.61555 64.31225,19.58455 C64.44425,19.57355 64.57675,19.56355 64.70875,19.55355 L64.78425,19.54805 L64.78425,18.13305 L64.69425,18.14405 C64.68925,18.14455 64.20525,18.20005 64.04075,18.20005" id="Fill-3"></path>
                    <path d="M68.97165,6.9599 L67.03165,6.9599 L67.03165,10.1579 L65.42265,10.1579 L65.42265,11.7549 L66.99315,11.7549 L66.99315,16.9189 C66.99315,18.1019 67.07715,18.6059 67.54815,19.0769 C68.10815,19.6169 68.95465,19.6859 69.62915,19.6859 C70.15915,19.6859 70.73315,19.6439 71.43715,19.5534 L71.50715,19.5444 L71.50715,17.7939 L71.41765,17.8034 C71.37865,17.8074 71.31915,17.8169 71.24365,17.8284 C70.98615,17.8684 70.55465,17.9349 70.12115,17.9349 C69.08165,17.9349 68.91515,17.5729 68.91515,16.4079 L68.91515,11.7549 L71.54465,11.7549 L71.54465,10.1579 L68.97165,10.1579 L68.97165,6.9599 Z" id="Fill-5"></path>
                    <path d="M90.7197,5.91915 C88.8237,5.91915 88.1487,6.88765 87.9177,7.70015 C87.7777,8.19765 87.7627,8.83365 87.7627,9.08465 L87.7627,10.15765 L86.2492,10.15765 L86.2492,11.75515 L87.7442,11.75515 L87.7442,19.55365 L89.6842,19.55365 L89.6842,11.77365 L92.2197,11.77365 L92.2197,10.15765 L89.6842,10.15765 L89.6842,8.89515 C89.6842,7.79265 90.4092,7.65115 91.0417,7.65115 C91.4887,7.65115 92.0042,7.77465 92.1322,7.81715 L92.2372,7.85215 L92.2577,6.06415 L92.1887,6.05265 C91.4467,5.93515 91.0442,5.91915 90.7197,5.91915" id="Fill-7"></path>
                    <path d="M103.24655,15.12055 C103.24655,15.65805 103.24655,16.08355 102.97355,16.55555 C102.62755,17.13805 101.49855,18.12455 99.46655,18.12455 C98.89705,18.12455 96.99355,18.02055 96.41955,16.67955 C96.24405,16.25255 96.17905,15.76805 96.17905,14.89355 L96.17905,10.15805 L94.23855,10.15805 L94.23855,15.08305 C94.23855,15.92555 94.23855,16.88105 94.62605,17.67255 C95.63055,19.76955 98.69305,19.87555 99.29655,19.87555 C99.85405,19.87555 101.27555,19.79805 102.44255,19.08805 C102.83455,18.84655 103.10955,18.62755 103.28405,18.47755 L103.28405,19.55355 L105.20555,19.55355 L105.20555,10.15805 L103.24655,10.15805 L103.24655,15.12055 Z" id="Fill-9"></path>
                    <path d="M114.59815,9.893 C113.56715,9.893 112.64065,10.061 111.84215,10.3915 C111.19215,10.6575 110.84965,10.935 110.55315,11.183 L110.55315,10.158 L108.59415,10.158 L108.59415,19.554 L110.55315,19.554 L110.55315,15.083 C110.55315,14.538 110.57015,14.006 110.77515,13.4855 C111.45965,11.7725 113.45215,11.5875 114.27615,11.5875 C116.49015,11.5875 117.18565,12.6515 117.38165,13.11 C117.54015,13.462 117.62065,13.788 117.62065,14.591 L117.62065,19.554 L119.56065,19.554 L119.56065,14.4775 C119.56065,13.71 119.56065,12.9855 119.25115,12.25 C118.61365,10.7965 116.83065,9.893 114.59815,9.893" id="Fill-11"></path>
                    <path d="M131.0752,12.5129 C131.9947,13.3384 131.9947,14.3719 131.9947,14.7614 C131.9947,17.7624 129.2457,18.0869 128.0637,18.0869 C125.7787,18.0869 124.3032,16.8479 124.3032,14.9314 C124.3032,13.9024 124.6682,13.0369 125.3587,12.4279 C126.0252,11.8409 126.9407,11.5304 128.0067,11.5304 C129.6377,11.5304 130.5757,12.0649 131.0752,12.5129 Z M131.8997,6.0329 L131.8997,11.1549 C130.4542,10.0929 128.7782,9.9309 127.8937,9.9309 C125.6552,9.9309 124.2787,10.9239 123.7902,11.3519 C122.4657,12.5289 122.2687,14.0049 122.2687,14.7804 C122.2687,17.0734 123.7562,18.3209 124.2122,18.6484 C124.8757,19.1389 126.0427,19.7239 127.8362,19.7239 C129.5147,19.7239 130.8802,19.2859 131.8997,18.4214 L131.8997,19.5539 L133.8587,19.5539 L133.8587,6.0329 L131.8997,6.0329 Z" id="Fill-13"></path>
                    <polygon id="Fill-15" points="10.9975 20.3255 13.0155 20.3255 13.0155 4.7215 10.9975 4.7215"></polygon>
                    <path d="M11.1372,-5e-05 L7.8717,-5e-05 L0.0002,-5e-05 L0.0002,24.99995 L7.4272,24.99995 L11.1372,24.99995 C19.1277,24.99995 24.9687,20.42095 24.9687,12.52295 C24.9687,4.34545 19.1277,-5e-05 11.1372,-5e-05 M11.1372,2.01745 C18.5352,2.01745 22.9512,5.94495 22.9512,12.52295 C22.9512,18.97445 18.4242,22.98245 11.1372,22.98245 L7.4272,22.98245 L2.0177,22.98245 L2.0177,2.01745 L7.8717,2.01745 L11.1372,2.01745" id="Fill-17"></path>
                    <path d="M12.0066,6.7485 C8.6431,6.7485 5.9166,9.2795 5.9166,12.401 C5.9166,15.5225 8.6431,18.0535 12.0066,18.0535 C15.3696,18.0535 18.0966,15.5225 18.0966,12.401 C18.0966,9.2795 15.3696,6.7485 12.0066,6.7485 M12.0066,8.766 C14.2521,8.766 16.0791,10.397 16.0791,12.401 C16.0791,14.405 14.2521,16.036 12.0066,16.036 C9.7606,16.036 7.9341,14.405 7.9341,12.401 C7.9341,10.397 9.7606,8.766 12.0066,8.766" id="Fill-18"></path>
                    <path d="M78.7129,15.18255 L82.0149,15.18255 C82.0144,15.19355 82.0139,15.20605 82.0134,15.21755 C81.9994,15.52355 81.9759,16.03355 81.6889,16.57705 C80.8204,18.17855 78.6699,18.35155 77.7859,18.35155 C75.9984,18.35155 75.1989,17.48005 75.1989,16.61555 C75.1989,15.18255 76.9059,15.18255 78.7129,15.18255 M84.8064,18.20005 C84.0349,18.20005 83.8464,17.93755 83.8464,16.86155 L83.8464,13.17155 C83.8464,12.47705 83.8464,11.82005 83.3759,11.19305 C83.0084,10.69805 82.4054,10.35155 81.5709,10.16055 C80.4584,9.88205 79.0754,9.87405 78.9214,9.87405 C75.6894,9.87405 74.7409,10.66155 74.2744,11.34805 C74.0449,11.69255 73.8704,12.18655 73.8474,12.28155 C73.8474,12.28155 73.8334,12.33605 73.8219,12.38105 C73.8114,12.42055 73.7919,12.51605 73.7889,12.55755 L75.7939,12.55755 C75.8019,12.53855 75.8089,12.52055 75.8169,12.50205 C76.2119,11.54255 77.7749,11.34105 79.0159,11.34105 C82.0009,11.34105 82.0009,12.38655 82.0009,13.49305 L82.0009,13.63955 L79.4514,13.63955 C77.3084,13.63955 75.8349,13.67055 74.9154,14.08155 C74.5224,14.24755 73.2394,14.92355 73.2394,16.63405 C73.2394,17.39955 73.5574,19.89405 77.6534,19.89405 C80.2209,19.89405 81.5624,18.93405 82.0489,18.23855 C82.1374,18.84905 82.4009,19.64855 83.8789,19.64855 C84.2794,19.64855 84.6849,19.61555 85.0774,19.58455 C85.2094,19.57355 85.3419,19.56355 85.4744,19.55355 L85.5499,19.54805 L85.5499,18.13305 L85.4594,18.14405 C85.4544,18.14455 84.9704,18.20005 84.8064,18.20005" id="Fill-19"></path>
                </g>
            </g>
        </g>
    </g>
</svg>

<?xml version="1.0" encoding="utf-8"?>
<!-- Generator: Adobe Illustrator 16.0.0, SVG Export Plug-In . SVG Version: 6.00 Build 0)  -->
<!DOCTYPE svg PUBLIC "-//W3C//DTD SVG 1.1//EN" "http://www.w3.org/Graphics/SVG/1.1/DTD/svg11.dtd">
<svg version="1.1" id="Layer_1" xmlns="http://www.w3.org/2000/svg" xmlns:xlink="http://www.w3.org/1999/xlink" x="0px" y="0px"
	 width="134px" height="25px" viewBox="0 0 134 25" enable-background="new 0 0 134 25" xml:space="preserve">
<title>4C4E213C-CE92-457A-B38D-4360DD070923</title>
<desc>Created with sketchtool.</desc>
<g id="Datafund">
	<g id="datafund" transform="translate(-50.000000, -50.000000)">
		<g id="hero">
			<g id="logotype" transform="translate(50.000000, 50.000000)">
				<path id="Fill-1" fill="#FFFFFF" d="M42.337,17.784h-4.006V7.764h4.65c0.695,0,1.423,0.023,2.042,0.187
					c1.997,0.529,3.25,2.32,3.271,4.671c0,0.931-0.205,2.673-1.581,3.895C45.39,17.686,43.826,17.784,42.337,17.784 M47.604,7.125
					c-1.685-1.092-3.247-1.092-4.624-1.092h-6.722v13.521h5.417c2.015,0,4.522,0,6.428-1.608c1.429-1.195,2.282-3.156,2.282-5.247
					C50.385,10.281,49.397,8.302,47.604,7.125"/>
				<path id="Fill-3" fill="#FFFFFF" d="M57.948,15.183h3.302c0,0.011-0.001,0.023-0.001,0.035
					c-0.014,0.306-0.037,0.815-0.324,1.359c-0.869,1.602-3.019,1.774-3.903,1.774c-1.787,0-2.587-0.871-2.587-1.736
					C54.433,15.183,56.14,15.183,57.948,15.183 M64.041,18.2c-0.771,0-0.959-0.263-0.959-1.339v-3.689c0-0.695,0-1.352-0.47-1.979
					c-0.368-0.495-0.971-0.841-1.805-1.032c-1.112-0.279-2.496-0.287-2.649-0.287c-3.232,0-4.181,0.788-4.647,1.474
					c-0.229,0.344-0.404,0.838-0.428,0.934c0,0-0.013,0.054-0.025,0.099c-0.01,0.04-0.029,0.135-0.032,0.177h2.005
					c0.007-0.019,0.015-0.037,0.023-0.056c0.395-0.959,1.958-1.161,3.199-1.161c2.985,0,2.985,1.046,2.985,2.152v0.146h-2.55
					c-2.142,0-3.616,0.03-4.535,0.442c-0.393,0.166-1.677,0.842-1.677,2.553c0,0.765,0.319,3.26,4.414,3.26
					c2.567,0,3.91-0.961,4.396-1.656c0.088,0.611,0.352,1.41,1.831,1.41c0.4,0,0.806-0.033,1.198-0.064
					c0.132-0.01,0.265-0.021,0.397-0.03l0.075-0.006v-1.415l-0.09,0.012C64.689,18.145,64.205,18.2,64.041,18.2"/>
				<path id="Fill-5" fill="#FFFFFF" d="M68.972,6.96h-1.94v3.198h-1.609v1.597h1.57v5.164c0,1.183,0.084,1.687,0.556,2.158
					c0.559,0.54,1.406,0.608,2.08,0.608c0.53,0,1.104-0.041,1.809-0.133l0.07-0.008v-1.751l-0.09,0.009
					c-0.039,0.005-0.099,0.014-0.174,0.025c-0.258,0.04-0.689,0.107-1.123,0.107c-1.039,0-1.206-0.363-1.206-1.527v-4.653h2.63
					v-1.597h-2.573V6.96z"/>
				<path id="Fill-7" fill="#FFFFFF" d="M90.72,5.919c-1.896,0-2.571,0.969-2.802,1.781c-0.141,0.498-0.155,1.133-0.155,1.384v1.073
					h-1.514v1.598h1.495v7.798h1.939v-7.78h2.536v-1.616h-2.536V8.895c0-1.103,0.726-1.244,1.357-1.244
					c0.447,0,0.963,0.123,1.092,0.166l0.104,0.035l0.021-1.788l-0.069-0.011C91.447,5.935,91.045,5.919,90.72,5.919"/>
				<path id="Fill-9" fill="#FFFFFF" d="M103.246,15.121c0,0.537,0,0.963-0.272,1.435c-0.347,0.583-1.476,1.569-3.507,1.569
					c-0.57,0-2.473-0.104-3.047-1.445c-0.176-0.428-0.24-0.912-0.24-1.786v-4.735h-1.941v4.925c0,0.843,0,1.798,0.388,2.589
					c1.005,2.098,4.067,2.203,4.671,2.203c0.557,0,1.979-0.077,3.146-0.787c0.392-0.241,0.667-0.461,0.842-0.61v1.076h1.921v-9.396
					h-1.959V15.121z"/>
				<path id="Fill-11" fill="#FFFFFF" d="M114.598,9.893c-1.03,0-1.957,0.168-2.756,0.499c-0.649,0.266-0.992,0.543-1.289,0.792
					v-1.025h-1.959v9.396h1.959v-4.472c0-0.545,0.018-1.077,0.223-1.598c0.684-1.713,2.677-1.898,3.501-1.898
					c2.214,0,2.909,1.064,3.105,1.522c0.158,0.353,0.239,0.679,0.239,1.481v4.964h1.939v-5.077c0-0.768,0-1.492-0.31-2.228
					C118.613,10.796,116.83,9.893,114.598,9.893"/>
				<path id="Fill-13" fill="#FFFFFF" d="M131.075,12.513c0.919,0.825,0.919,1.859,0.919,2.249c0,3-2.748,3.325-3.931,3.325
					c-2.284,0-3.761-1.239-3.761-3.155c0-1.029,0.365-1.895,1.057-2.504c0.666-0.587,1.582-0.897,2.647-0.897
					C129.638,11.53,130.576,12.065,131.075,12.513z M131.9,6.033v5.122c-1.446-1.062-3.122-1.224-4.007-1.224
					c-2.238,0-3.614,0.993-4.104,1.421c-1.324,1.177-1.521,2.653-1.521,3.428c0,2.293,1.487,3.54,1.944,3.868
					c0.662,0.49,1.83,1.076,3.623,1.076c1.679,0,3.045-0.438,4.064-1.303v1.132h1.959V6.033H131.9z"/>
				<polygon id="Fill-15" fill="#FFFFFF" points="10.998,20.326 13.016,20.326 13.016,4.722 10.998,4.722 				"/>
				<path id="Fill-17" fill="#FFFFFF" d="M11.137,0H7.872H0v25h7.427h3.71c7.991,0,13.832-4.579,13.832-12.477
					C24.969,4.346,19.128,0,11.137,0 M11.137,2.018c7.398,0,11.814,3.927,11.814,10.505c0,6.452-4.527,10.459-11.814,10.459h-3.71
					h-5.41V2.018h5.854H11.137"/>
				<path id="Fill-18" fill="#FFFFFF" d="M12.007,6.749c-3.364,0-6.09,2.531-6.09,5.652s2.727,5.653,6.09,5.653
					c3.363,0,6.09-2.531,6.09-5.653S15.37,6.749,12.007,6.749 M12.007,8.766c2.245,0,4.072,1.631,4.072,3.635
					c0,2.003-1.827,3.635-4.072,3.635c-2.246,0-4.073-1.632-4.073-3.635C7.934,10.397,9.761,8.766,12.007,8.766"/>
				<path id="Fill-19" fill="#FFFFFF" d="M78.713,15.183h3.303c-0.002,0.011-0.002,0.023-0.002,0.035
					c-0.014,0.306-0.037,0.815-0.324,1.359c-0.869,1.602-3.02,1.774-3.903,1.774c-1.788,0-2.587-0.871-2.587-1.736
					C75.199,15.183,76.906,15.183,78.713,15.183 M84.807,18.2c-0.771,0-0.961-0.263-0.961-1.339v-3.689c0-0.695,0-1.352-0.47-1.979
					c-0.368-0.495-0.971-0.841-1.806-1.032c-1.111-0.279-2.495-0.287-2.648-0.287c-3.232,0-4.182,0.788-4.647,1.474
					c-0.229,0.344-0.403,0.838-0.427,0.934c0,0-0.014,0.054-0.025,0.099c-0.011,0.04-0.03,0.135-0.033,0.177h2.005
					c0.008-0.019,0.015-0.037,0.022-0.056c0.396-0.959,1.959-1.161,3.199-1.161c2.985,0,2.985,1.046,2.985,2.152v0.146h-2.55
					c-2.143,0-3.616,0.03-4.535,0.442c-0.394,0.166-1.677,0.842-1.677,2.553c0,0.765,0.318,3.26,4.414,3.26
					c2.567,0,3.909-0.961,4.396-1.656c0.088,0.611,0.352,1.41,1.83,1.41c0.4,0,0.807-0.033,1.199-0.064
					c0.131-0.01,0.264-0.021,0.396-0.03l0.075-0.006v-1.415l-0.091,0.012C85.455,18.145,84.971,18.2,84.807,18.2"/>
			</g>
		</g>
	</g>
</g>
</svg>
